src/components/Icon/utils/svgsOptimized/edit.svg

<svg width="24" height="24" viewBox="0 0 24 24"  xmlns="http://www.w3.org/2000/svg">
<path fill-rule="evenodd" clip-rule="evenodd" d="M16.0043 5.0025C16.2034 5.0023 16.3945 5.08133 16.5354 5.22217L18.8854 7.57217C19.0262 7.71302 19.1052 7.9041 19.105 8.10328C19.1048 8.30247 19.0254 8.49339 18.8843 8.63394L9.25426 18.2239C9.14872 18.329 9.01427 18.4003 8.86805 18.4287L7.48304 18.6978L4.88708 19.2204L5.41005 16.6231L5.6788 15.2395C5.7072 15.0933 5.7785 14.9588 5.8836 14.8533L15.4736 5.22328C15.6142 5.08214 15.8051 5.00271 16.0043 5.0025ZM7.19203 17.2263L7.18392 17.2279L6.80293 17.3046L6.88128 16.9155L7.10771 15.7498L14.2059 8.62206L15.4855 9.90168L8.35772 16.9998L7.19203 17.2263Z" />
</svg>

<?xml version="1.0" encoding="utf-8"?><svg width="24" height="24" xmlns="http://www.w3.org/2000/svg" viewBox="0 0 24 24"><path fill-rule="evenodd" clip-rule="evenodd" d="M16.004 5.003c.2 0 .39.078.531.22l2.35 2.35a.75.75 0 0 1 0 1.06l-9.63 9.59a.75.75 0 0 1-.387.206l-1.385.269-2.596.522.523-2.597.269-1.384a.75.75 0 0 1 .205-.386l9.59-9.63a.75.75 0 0 1 .53-.22ZM7.192 17.226l-.008.002-.381.077.078-.39.227-1.165 7.098-7.128 1.28 1.28L8.357 17l-1.166.226Z"/></svg>
